svg/building/canton_tower_line.svg

<?xml version="1.0" encoding="UTF-8"?>
<svg width="24px" height="24px" viewBox="0 0 24 24" version="1.1" xmlns="http://www.w3.org/2000/svg" xmlns:xlink="http://www.w3.org/1999/xlink">
    <title>tower_3_line</title>
    <g id="页面-1" stroke="none" stroke-width="1" fill="none" fill-rule="evenodd">
        <g id="Building" transform="translate(-240.000000, -96.000000)">
            <g id="tower_3_line" transform="translate(240.000000, 96.000000)">
                 <path d="M24,0 L24,24 L0,24 L0,0 L24,0 Z M12.5934901,23.257841 L12.5819402,23.2595131 L12.5108777,23.2950439 L12.4918791,23.2987469 L12.4918791,23.2987469 L12.4767152,23.2950439 L12.4056548,23.2595131 C12.3958229,23.2563662 12.3870493,23.2590235 12.3821421,23.2649074 L12.3780323,23.275831 L12.360941,23.7031097 L12.3658947,23.7234994 L12.3769048,23.7357139 L12.4804777,23.8096931 L12.4953491,23.8136134 L12.4953491,23.8136134 L12.5071152,23.8096931 L12.6106902,23.7357139 L12.6232938,23.7196733 L12.6232938,23.7196733 L12.6266527,23.7031097 L12.609561,23.275831 C12.6075724,23.2657013 12.6010112,23.2592993 12.5934901,23.257841 L12.5934901,23.257841 Z M12.8583906,23.1452862 L12.8445485,23.1473072 L12.6598443,23.2396597 L12.6498822,23.2499052 L12.6498822,23.2499052 L12.6471943,23.2611114 L12.6650943,23.6906389 L12.6699349,23.7034178 L12.6699349,23.7034178 L12.678386,23.7104931 L12.8793402,23.8032389 C12.8914285,23.8068999 12.9022333,23.8029875 12.9078286,23.7952264 L12.9118235,23.7811639 L12.8776777,23.1665331 C12.8752882,23.1545897 12.8674102,23.1470016 12.8583906,23.1452862 L12.8583906,23.1452862 Z M12.1430473,23.1473072 C12.1332178,23.1423925 12.1221763,23.1452606 12.1156365,23.1525954 L12.1099173,23.1665331 L12.0757714,23.7811639 C12.0751323,23.7926639 12.0828099,23.8018602 12.0926481,23.8045676 L12.108256,23.8032389 L12.3092106,23.7104931 L12.3186497,23.7024347 L12.3186497,23.7024347 L12.3225043,23.6906389 L12.340401,23.2611114 L12.337245,23.2485176 L12.337245,23.2485176 L12.3277531,23.2396597 L12.1430473,23.1473072 Z" id="MingCute" fill-rule="nonzero"></path>
                <path d="M12,1 C12.5523,1 13,1.44772 13,2 L13,4 L14.9872,4 C15.604,4 16.1337,4.57742 15.9681,5.25098 C15.9119,5.4794 15,9.25433 15,13 C15,14.9244 15.2413,16.865 15.4864,18.3356 C15.6085,19.0681 15.7305,19.6779 15.8216,20.103 C15.8838,20.3934 16,20.7003 16.0002,21 L17,21 C17.5523,21 18,21.4477 18,22 C18,22.5523 17.5523,23 17,23 L7,23 C6.44772,23 6,22.5523 6,22 C6,21.4477 6.44772,21 7,21 L7.99976,21 C8,20.7003 8.11619,20.3935 8.17845,20.103 C8.26953,19.6779 8.39152,19.0681 8.51361,18.3356 C8.7587,16.865 9,14.9244 9,13 C9,9.25433 8.08812,5.4794 8.03194,5.25098 C7.86629,4.57742 8.39599,4 9.01281,4 L11,4 L11,2 C11,1.44772 11.4477,1 12,1 Z M10.0279,21 L13.9721,21 C13.8817,20.6087 13.6977,19.7688 13.5136,18.6644 C13.2587,17.135 13,15.0756 13,13 C13,10.2566 13.453,7.52695 13.7579,6 L10.2421,6 C10.547,7.52695 11,10.2566 11,13 C11,15.0756 10.7413,17.135 10.4864,18.6644 C10.3023,19.7688 10.1183,20.6087 10.0279,21 Z" id="形状" fill="#09244B"></path>
            </g>
        </g>
    </g>
</svg>

<svg xmlns="http://www.w3.org/2000/svg" width="24" height="24"><g fill="none" fill-rule="evenodd"><path d="M24 0v24H0V0h24ZM12.593 23.258l-.011.002-.071.035-.02.004-.014-.004-.071-.035c-.01-.004-.019-.001-.024.005l-.004.01-.017.428.005.02.01.013.104.074.015.004.012-.004.104-.074.012-.016.004-.017-.017-.427c-.002-.01-.009-.017-.017-.018Zm.265-.113-.013.002-.185.093-.01.01-.003.011.018.43.005.012.008.007.201.093c.012.004.023 0 .029-.008l.004-.014-.034-.614c-.003-.012-.01-.02-.02-.022Zm-.715.002a.023.023 0 0 0-.027.006l-.006.014-.034.614c0 .012.007.02.017.024l.015-.002.201-.093.01-.008.004-.011.017-.43-.003-.012-.01-.01-.184-.092Z"/><path fill="#09244B" d="M12 1a1 1 0 0 1 1 1v2h1.987c.617 0 1.147.577.981 1.251C15.912 5.479 15 9.254 15 13c0 1.924.241 3.865.486 5.336.122.732.244 1.342.336 1.767.062.29.178.597.178.897h1a1 1 0 1 1 0 2H7a1 1 0 1 1 0-2h1c0-.3.116-.607.178-.897.092-.425.214-1.035.336-1.767C8.759 16.865 9 14.924 9 13c0-3.746-.912-7.52-.968-7.749C7.866 4.577 8.396 4 9.012 4H11V2a1 1 0 0 1 1-1Zm-1.972 20h3.944a39.458 39.458 0 0 1-.458-2.336C13.259 17.135 13 15.076 13 13c0-2.743.453-5.473.758-7h-3.516c.305 1.527.758 4.257.758 7 0 2.076-.259 4.135-.514 5.664A39.458 39.458 0 0 1 10.028 21Z"/></g></svg>
